X:179
T:GIRL IN GREEN
R:Jig
S:KERR'S VIOLIN III
M:6/8
L:1/8
Q:116
K:G
|:Bc|"G" ded BGB| "Am" c2 B "D" A2 G| "G" DGG "Em" GFG| "Am" ABA "D" ABc|!
"G" ded BGB|"Am" c2 B "D" A2 G| "G" DGG "C" EGG|"G" DGG G2||!
Bc  |"G" ded Bdg| "C" ecc c3|"Am" efe "A" ^cea | "D"  fdd d2 ef|!
"G" gfe dcB | "Am" edc "D" BAG | "G" DGG "C" EGG | "G" DGG G2 :||!
